!!!OTL: Absage.
!!!ARE: Europa, Mitteleuropa, Deutschland
!!!SCT: A0214
!!!TXL: @@GMH
!!!YEM: Copyright 1995, estate of Helmut Schaffrath.
**kern	**text
*M4/2	*
*met(c|)	*
*clefC4	*
*k[b-]	*
*G:dor	*
=1	=1
!LO:TX:a:t=dor. tr.	!
1ryy	.
2ryy	.
{2G	Es
=2	=2
2G	naht
2G	ſich
2G	ge-
2G	-gen
=3	=3
*lig	*
2F	mey-
2F	.
*Xlig	*
2D}	-en,
!LO:TX:a:t=P:note in parenthesis:problem	!
{2D	.
=4	=4
2.B-	grün
4B-	wil
2c	ich
2B-	mich
=5	=5
!LO:TX:a:t=P:1a in the source:problem	!
!LO:N:vis=1	!
2A	klei-
!LO:TX:a:t=P:1g in the source:problem	!
!LO:N:vis=1	!
4G}	-den,
{4G	Den
=6	=6
2G	lieb-
2G	-ſten
2G	bu-
2G	-len
=7	=7
*lig	*
2F	den
2F	ich
*Xlig	*
2D}	hab,
!LO:TX:a:t=P:note in parenthesis:problem	!
{2D	der
=8	=8
2.B-	wil
4B-	ſich
2c	von
2B-	mir
=9	=9
!LO:TX:a:t=P:1a in the source:problem	!
!LO:N:vis=1	!
2A	ſchei-
!LO:TX:a:t=P:1g in the source:problem	!
!LO:N:vis=1	!
2G	-den,
=10	=10
2r}	.
{2G	Das
=11	=11
2.B-	ſchafft
4c	al-
2d	-lein
2B-	jr
=12	=12
1c	vn-
1G}	-trew,
=13	=13
{2.c	wan-
4c	-ckel-
2B-	-mü-
4A/	-tig
4G	.
=14	=14
*lig	*
2.F	ſinn,
4G	.
2A/}	.
*Xlig	*
{2B-	hab
=15	=15
2c	vr-
2G	-laub,
2B-	fahr
2A	da-
=16	=16
0G/ll}	-hin!
==	==
!!!GTL: Liebeslieder
!!!AGN: Romanze, Ballade, Lied
!! Forster III. 1552 No. 33.
!!!ONB: ESAC (Essen Associative Code) Database: ALTDEU
!!!AMT: simple quadruple
!!!AIN: vox
!!!EED: Helmut Schaffrath
!!!EEV: 1.0
!!!RDF**kern: l = terminal long
!!!AMD: Dorian
!!!URL-scan: https://rosdok.uni-rostock.de/mcrviewer/recordIdentifier/rosdok_ppn738218359/iview2/phys_0371.iview2?x=-1816.6124862433817&y=1086.9510237250943&scale=0.262872707487861&rotation=0&layout=singlePageLayout
!!!ENC: Anna Maria Matuszewska
!!!EEV: 2024/08/03
*-	*-
